assets/images/reviews-bg.svg

<svg width="665" height="635" viewBox="0 0 665 635" fill="none" xmlns="http://www.w3.org/2000/svg">
<mask id="mask0_123_4163" style="mask-type:luminance" maskUnits="userSpaceOnUse" x="-97" y="0" width="860" height="636">
<path d="M762.314 0H-96.3145V635.934H762.314V0Z" fill="white"/>
</mask>
<g mask="url(#mask0_123_4163)">
<path d="M762.314 0.000488281H-96.3145V635.934H762.314V0.000488281Z" fill="#D9D9D9"/>
<g opacity="0.5">
<path d="M761.524 638.417L396.537 638.419L548.747 0.000691312L761.524 -0.000488281V638.417Z" fill="#F2F2F2"/>
<path d="M452.671 280.352H453.415L368.783 635.935H368.039L452.671 280.352Z" fill="#BDBDBD"/>
<path d="M450.132 280.352H450.876L366.248 635.935H365.5L450.132 280.352Z" fill="#BDBDBD"/>
<path d="M447.595 280.352H448.343L363.711 635.935H362.963L447.595 280.352Z" fill="#BDBDBD"/>
<path d="M445.061 280.352H445.806L361.174 635.935H360.43L445.061 280.352Z" fill="#BDBDBD"/>
<path d="M442.524 280.352H443.269L358.637 635.935H357.893L442.524 280.352Z" fill="#BDBDBD"/>
<path d="M439.987 280.352H440.735L356.104 635.935H355.355L439.987 280.352Z" fill="#BDBDBD"/>
<path d="M437.45 280.352H438.198L353.566 635.935H352.822L437.45 280.352Z" fill="#BDBDBD"/>
<path d="M434.915 280.352H435.659L351.027 635.935H350.283L434.915 280.352Z" fill="#BDBDBD"/>
<path d="M432.378 280.352H433.122L348.494 635.935H347.746L432.378 280.352Z" fill="#BDBDBD"/>
<path d="M429.841 280.352H430.589L345.957 635.935H345.209L429.841 280.352Z" fill="#BDBDBD"/>
<path d="M427.308 280.352H428.052L343.42 635.935H342.676L427.308 280.352Z" fill="#BDBDBD"/>
<path d="M424.77 280.352H425.515L340.883 635.935H340.139L424.77 280.352Z" fill="#BDBDBD"/>
<path d="M422.233 280.352H422.982L338.35 635.935H337.602L422.233 280.352Z" fill="#BDBDBD"/>
<path d="M419.694 280.352H420.442L335.811 635.935H335.066L419.694 280.352Z" fill="#BDBDBD"/>
<path d="M417.161 280.352H417.905L333.273 635.935H332.529L417.161 280.352Z" fill="#BDBDBD"/>
<path d="M414.624 280.352H415.372L330.74 635.935H329.992L414.624 280.352Z" fill="#BDBDBD"/>
<path d="M412.087 280.352H412.835L328.203 635.935H327.459L412.087 280.352Z" fill="#BDBDBD"/>
<path d="M409.554 280.352H410.298L325.666 635.935H324.922L409.554 280.352Z" fill="#BDBDBD"/>
<path d="M407.015 280.352H407.759L323.131 635.935H322.383L407.015 280.352Z" fill="#BDBDBD"/>
<path d="M404.477 280.352H405.226L320.594 635.935H319.846L404.477 280.352Z" fill="#BDBDBD"/>
<path d="M401.944 280.352H402.688L318.057 635.935H317.312L401.944 280.352Z" fill="#BDBDBD"/>
<path d="M399.407 280.352H400.151L315.52 635.935H314.775L399.407 280.352Z" fill="#BDBDBD"/>
<path d="M396.87 280.352H397.618L312.986 635.935H312.238L396.87 280.352Z" fill="#BDBDBD"/>
<path d="M394.333 280.352H395.081L310.449 635.935H309.705L394.333 280.352Z" fill="#BDBDBD"/>
<path d="M391.798 280.352H392.542L307.91 635.935H307.166L391.798 280.352Z" fill="#BDBDBD"/>
<path d="M389.261 280.352H390.005L305.377 635.935H304.629L389.261 280.352Z" fill="#BDBDBD"/>
<path d="M386.724 280.352H387.472L302.84 635.935H302.092L386.724 280.352Z" fill="#BDBDBD"/>
<path d="M384.19 280.352H384.935L300.303 635.935H299.559L384.19 280.352Z" fill="#BDBDBD"/>
<path d="M381.653 280.352H382.397L297.767 635.935H297.021L381.653 280.352Z" fill="#BDBDBD"/>
<path d="M379.115 280.352H379.863L295.23 635.935H294.484L379.115 280.352Z" fill="#BDBDBD"/>
<path d="M537.386 -75.2324H538.13L453.498 280.351H452.754L537.386 -75.2324Z" fill="#BDBDBD"/>
<path d="M534.849 -75.2324H535.593L450.965 280.351H450.217L534.849 -75.2324Z" fill="#BDBDBD"/>
<path d="M532.309 -75.2324H533.058L448.426 280.351H447.678L532.309 -75.2324Z" fill="#BDBDBD"/>
<path d="M529.776 -75.2324H530.52L445.889 280.351H445.145L529.776 -75.2324Z" fill="#BDBDBD"/>
<path d="M527.239 -75.2324H527.983L443.352 280.351H442.607L527.239 -75.2324Z" fill="#BDBDBD"/>
<path d="M524.702 -75.2324H525.45L440.819 280.351H440.07L524.702 -75.2324Z" fill="#BDBDBD"/>
<path d="M522.165 -75.2324H522.913L438.281 280.351H437.537L522.165 -75.2324Z" fill="#BDBDBD"/>
<path d="M519.63 -75.2324H520.374L435.742 280.351H434.998L519.63 -75.2324Z" fill="#BDBDBD"/>
<path d="M517.093 -75.2324H517.837L433.209 280.351H432.461L517.093 -75.2324Z" fill="#BDBDBD"/>
<path d="M514.556 -75.2324H515.304L430.672 280.351H429.924L514.556 -75.2324Z" fill="#BDBDBD"/>
<path d="M512.022 -75.2324H512.767L428.135 280.351H427.391L512.022 -75.2324Z" fill="#BDBDBD"/>
<path d="M509.485 -75.2324H510.229L425.598 280.351H424.854L509.485 -75.2324Z" fill="#BDBDBD"/>
<path d="M506.946 -75.2324H507.694L423.063 280.351H422.314L506.946 -75.2324Z" fill="#BDBDBD"/>
<path d="M504.409 -75.2324H505.157L420.525 280.351H419.781L504.409 -75.2324Z" fill="#BDBDBD"/>
<path d="M501.876 -75.2324H502.62L417.988 280.351H417.244L501.876 -75.2324Z" fill="#BDBDBD"/>
<path d="M499.339 -75.2324H500.087L415.455 280.351H414.707L499.339 -75.2324Z" fill="#BDBDBD"/>
<path d="M496.802 -75.2324H497.55L412.918 280.351H412.174L496.802 -75.2324Z" fill="#BDBDBD"/>
<path d="M494.268 -75.2324H495.013L410.381 280.351H409.637L494.268 -75.2324Z" fill="#BDBDBD"/>
<path d="M491.729 -75.2324H492.474L407.846 280.351H407.098L491.729 -75.2324Z" fill="#BDBDBD"/>
<path d="M489.192 -75.2324H489.94L405.309 280.351H404.561L489.192 -75.2324Z" fill="#BDBDBD"/>
<path d="M486.659 -75.2324H487.403L402.772 280.351H402.027L486.659 -75.2324Z" fill="#BDBDBD"/>
<path d="M484.122 -75.2324H484.866L400.234 280.351H399.49L484.122 -75.2324Z" fill="#BDBDBD"/>
<path d="M481.585 -75.2324H482.333L397.701 280.351H396.953L481.585 -75.2324Z" fill="#BDBDBD"/>
<path d="M479.046 -75.2324H479.794L395.162 280.351H394.418L479.046 -75.2324Z" fill="#BDBDBD"/>
<path d="M476.513 -75.2324H477.257L392.625 280.351H391.881L476.513 -75.2324Z" fill="#BDBDBD"/>
<path d="M473.976 -75.2324H474.72L390.092 280.351H389.344L473.976 -75.2324Z" fill="#BDBDBD"/>
<path d="M471.438 -75.2324H472.187L387.555 280.351H386.807L471.438 -75.2324Z" fill="#BDBDBD"/>
<path d="M468.905 -75.2324H469.649L385.018 280.351H384.273L468.905 -75.2324Z" fill="#BDBDBD"/>
<path d="M466.368 -75.2324H467.112L382.485 280.351H381.736L466.368 -75.2324Z" fill="#BDBDBD"/>
<path d="M463.829 -75.2324H464.577L379.945 280.351H379.197L463.829 -75.2324Z" fill="#BDBDBD"/>
<path opacity="0.6" fill-rule="evenodd" clip-rule="evenodd" d="M-14.8071 413.903H-15.4805L125.021 -176.727H125.695L-14.8071 413.903ZM-12.517 413.903H-13.1904L127.311 -176.727H127.985L-12.517 413.903ZM-10.227 413.903H-10.9003L129.601 -176.727H130.274L-10.227 413.903ZM-7.93689 413.903H-8.61025L131.891 -176.727H132.564L-7.93689 413.903ZM-5.64681 413.903H-6.32057L134.181 -176.727H134.854L-5.64681 413.903ZM-3.35674 413.903H-4.0305L136.471 -176.727H137.144L-3.35674 413.903ZM-1.06666 413.903H-1.74043L138.761 -176.727H139.435L-1.06666 413.903ZM1.22301 413.903H0.549646L141.051 -176.727H141.725L1.22301 413.903ZM3.51309 413.903H2.83972L143.341 -176.727H144.015L3.51309 413.903ZM5.80315 413.903H5.1298L145.631 -176.727H146.304L5.80315 413.903ZM8.09323 413.903H7.41987L147.921 -176.727H148.594L8.09323 413.903ZM10.3833 413.903H9.70955L150.211 -176.727H150.885L10.3833 413.903ZM12.6734 413.903H11.9996L152.501 -176.727H153.175L12.6734 413.903ZM14.9635 413.903H14.2897L154.791 -176.727H155.465L14.9635 413.903ZM17.2531 413.903H16.5798L157.081 -176.727H157.755L17.2531 413.903ZM19.5432 413.903H18.8698L159.371 -176.727H160.045L19.5432 413.903ZM21.8333 413.903H21.1599L161.661 -176.727H162.334L21.8333 413.903ZM24.1233 413.903H23.45L163.951 -176.727H164.625L24.1233 413.903ZM26.4134 413.903H25.7397L166.241 -176.727H166.915L26.4134 413.903ZM28.7035 413.903H28.0297L168.531 -176.727H169.205L28.7035 413.903ZM30.9936 413.903H30.3198L170.821 -176.727H171.495L30.9936 413.903ZM33.2832 413.903H32.6099L173.111 -176.727H173.785L33.2832 413.903ZM35.5733 413.903H34.9L175.401 -176.727H176.075L35.5733 413.903ZM37.8634 413.903H37.19L177.691 -176.727H178.365L37.8634 413.903ZM40.1535 413.903H39.4801L179.981 -176.727H180.655L40.1535 413.903ZM42.4435 413.903H41.7698L182.271 -176.727H182.945L42.4435 413.903ZM44.7336 413.903H44.0598L184.561 -176.727H185.235L44.7336 413.903ZM47.0237 413.903H46.3499L186.851 -176.727H187.525L47.0237 413.903ZM49.3134 413.903H48.64L189.141 -176.727H189.815L49.3134 413.903ZM51.6034 413.903H50.9301L191.431 -176.727H192.105L51.6034 413.903ZM53.8935 413.903H53.2201L193.721 -176.727H194.395L53.8935 413.903ZM56.1836 413.903H55.5102L196.011 -176.727H196.685L56.1836 413.903ZM58.4736 413.903H57.8003L198.301 -176.727H198.975L58.4736 413.903ZM60.7637 413.903H60.09L200.592 -176.727H201.265L60.7637 413.903ZM63.0538 413.903H62.38L202.881 -176.727H203.555L63.0538 413.903ZM65.3439 413.903H64.6701L205.171 -176.727H205.845L65.3439 413.903ZM67.6335 413.903H66.9602L207.461 -176.727H208.135L67.6335 413.903ZM69.9236 413.903H69.2502L209.751 -176.727H210.425L69.9236 413.903ZM72.2137 413.903H71.5403L212.042 -176.727H212.715L72.2137 413.903ZM74.5038 413.903H73.8304L214.332 -176.727H215.005L74.5038 413.903ZM76.7938 413.903H76.1201L216.622 -176.727H217.295L76.7938 413.903ZM79.0839 413.903H78.4101L218.911 -176.727H219.585L79.0839 413.903ZM81.374 413.903H80.7002L221.201 -176.727H221.875L81.374 413.903Z" fill="#BEBEBE"/>
<g opacity="0.6">
<path d="M320.096 -398.167H318.77L18.0547 865.964H19.38L320.096 -398.167Z" fill="#BEBEBE"/>
<path d="M324.601 -398.167H323.279L22.5605 865.964H23.8859L324.601 -398.167Z" fill="#BEBEBE"/>
<path d="M329.11 -398.167H327.784L27.0674 865.964H28.3927L329.11 -398.167Z" fill="#BEBEBE"/>
<path d="M333.615 -398.167H332.289L31.5732 865.964H32.8986L333.615 -398.167Z" fill="#BEBEBE"/>
<path d="M338.121 -398.167H336.795L36.0801 865.964H37.4054L338.121 -398.167Z" fill="#BEBEBE"/>
<path d="M342.629 -398.167H341.303L40.5859 865.964H41.9113L342.629 -398.167Z" fill="#BEBEBE"/>
<path d="M347.134 -398.167H345.808L45.0918 865.964H46.4172L347.134 -398.167Z" fill="#BEBEBE"/>
</g>
<g opacity="0.6">
<path d="M351.253 -398.167H349.927L49.2109 865.964H50.5363L351.253 -398.167Z" fill="#BEBEBE"/>
<path d="M355.758 -398.167H354.432L53.7168 865.964H55.0422L355.758 -398.167Z" fill="#BEBEBE"/>
<path d="M360.262 -398.167H358.94L58.2227 865.964H59.548L360.262 -398.167Z" fill="#BEBEBE"/>
<path d="M364.771 -398.167H363.445L62.7285 865.964H64.0539L364.771 -398.167Z" fill="#BEBEBE"/>
<path d="M369.277 -398.167H367.951L67.2354 865.964H68.5607L369.277 -398.167Z" fill="#BEBEBE"/>
<path d="M373.781 -398.167H372.459L71.7412 865.964H73.0666L373.781 -398.167Z" fill="#BEBEBE"/>
<path d="M378.29 -398.167H376.964L76.2471 865.964H77.5724L378.29 -398.167Z" fill="#BEBEBE"/>
</g>
<path d="M23.2205 -6.38696H-4.84898L-157.674 636.048H-129.604L23.2205 -6.38696Z" fill="#E0E0E0"/>
<path d="M20.4284 -6.38696H23.2208L-129.604 636.048H-132.396L20.4284 -6.38696Z" fill="#E0E0E0"/>
<path d="M0.404449 -6.38696H-0.268921L-153.094 636.048H-152.42L0.404449 -6.38696Z" fill="#F2F2F2"/>
<path d="M2.69449 -6.38696H2.02113L-150.804 636.048H-150.13L2.69449 -6.38696Z" fill="#F2F2F2"/>
<path d="M4.98492 -6.38696H4.31155L-148.514 636.048H-147.84L4.98492 -6.38696Z" fill="#F2F2F2"/>
<path d="M7.27399 -6.38696H6.60062L-146.225 636.048H-145.551L7.27399 -6.38696Z" fill="#F2F2F2"/>
<path d="M9.56403 -6.38696H8.89027L-143.935 636.048H-143.261L9.56403 -6.38696Z" fill="#F2F2F2"/>
<path d="M834.208 0.000488281H593.499L440.676 642.436H681.381L834.208 0.000488281Z" fill="#D9D9D9"/>
<path d="M586.77 0.000488281H573.112L420.289 642.436H433.946L586.77 0.000488281Z" fill="#D9D9D9"/>
</g>
</g>
</svg>

<svg width="665" height="635" fill="none" xmlns="http://www.w3.org/2000/svg"><mask id="a" style="mask-type:luminance" maskUnits="userSpaceOnUse" x="-97" y="0" width="860" height="636"><path d="M762.314 0H-96.314v635.934h858.628V0Z" fill="#fff"/></mask><g mask="url(#a)"><path d="M762.314 0H-96.314v635.934h858.628V0Z" fill="#D9D9D9"/><g opacity=".5"><path d="m761.524 638.417-364.987.002L548.747.001 761.524 0v638.417Z" fill="#F2F2F2"/><path d="M452.671 280.352h.744l-84.632 355.583h-.744l84.632-355.583ZM450.132 280.352h.744l-84.628 355.583h-.748l84.632-355.583ZM447.595 280.352h.748l-84.632 355.583h-.748l84.632-355.583ZM445.061 280.352h.745l-84.632 355.583h-.744l84.631-355.583ZM442.524 280.352h.745l-84.632 355.583h-.744l84.631-355.583ZM439.987 280.352h.748l-84.631 355.583h-.749l84.632-355.583ZM437.45 280.352h.748l-84.632 355.583h-.744l84.628-355.583ZM434.915 280.352h.744l-84.632 355.583h-.744l84.632-355.583ZM432.378 280.352h.744l-84.628 355.583h-.748l84.632-355.583ZM429.841 280.352h.748l-84.632 355.583h-.748l84.632-355.583ZM427.308 280.352h.744L343.42 635.935h-.744l84.632-355.583ZM424.77 280.352h.745l-84.632 355.583h-.744l84.631-355.583ZM422.233 280.352h.749L338.35 635.935h-.748l84.631-355.583ZM419.694 280.352h.748l-84.631 355.583h-.745l84.628-355.583ZM417.161 280.352h.744l-84.632 355.583h-.744l84.632-355.583ZM414.624 280.352h.748L330.74 635.935h-.748l84.632-355.583ZM412.087 280.352h.748l-84.632 355.583h-.744l84.628-355.583ZM409.554 280.352h.744l-84.632 355.583h-.744l84.632-355.583ZM407.015 280.352h.744l-84.628 355.583h-.748l84.632-355.583ZM404.477 280.352h.749l-84.632 355.583h-.748l84.631-355.583ZM401.944 280.352h.744l-84.631 355.583h-.745l84.632-355.583ZM399.407 280.352h.744L315.52 635.935h-.745l84.632-355.583ZM396.87 280.352h.748l-84.632 355.583h-.748l84.632-355.583ZM394.333 280.352h.748l-84.632 355.583h-.744l84.628-355.583ZM391.798 280.352h.744L307.91 635.935h-.744l84.632-355.583ZM389.261 280.352h.744l-84.628 355.583h-.748l84.632-355.583ZM386.724 280.352h.748L302.84 635.935h-.748l84.632-355.583ZM384.19 280.352h.745l-84.632 355.583h-.744l84.631-355.583ZM381.653 280.352h.744l-84.63 355.583h-.746l84.632-355.583ZM379.115 280.352h.748L295.23 635.935h-.746l84.631-355.583ZM537.386-75.232h.744L453.498 280.35h-.744l84.632-355.583ZM534.849-75.232h.744L450.965 280.35h-.748l84.632-355.583ZM532.309-75.232h.749L448.426 280.35h-.748l84.631-355.583ZM529.776-75.232h.744L445.889 280.35h-.744l84.631-355.583ZM527.239-75.232h.744L443.352 280.35h-.745l84.632-355.583ZM524.702-75.232h.748L440.819 280.35h-.749l84.632-355.583ZM522.165-75.232h.748L438.281 280.35h-.744l84.628-355.583ZM519.63-75.232h.744L435.742 280.35h-.744L519.63-75.232ZM517.093-75.232h.744L433.209 280.35h-.748l84.632-355.583ZM514.556-75.232h.748L430.672 280.35h-.748l84.632-355.583ZM512.022-75.232h.745L428.135 280.35h-.744l84.631-355.583ZM509.485-75.232h.744L425.598 280.35h-.744l84.631-355.583ZM506.946-75.232h.748L423.063 280.35h-.749l84.632-355.583ZM504.409-75.232h.748L420.525 280.35h-.744l84.628-355.583ZM501.876-75.232h.744L417.988 280.35h-.744l84.632-355.583ZM499.339-75.232h.748L415.455 280.35h-.748l84.632-355.583ZM496.802-75.232h.748L412.918 280.35h-.744l84.628-355.583ZM494.268-75.232h.745L410.381 280.35h-.744l84.631-355.583ZM491.729-75.232h.745L407.846 280.35h-.748l84.631-355.583ZM489.192-75.232h.748L405.309 280.35h-.748l84.631-355.583ZM486.659-75.232h.744L402.772 280.35h-.745l84.632-355.583ZM484.122-75.232h.744L400.234 280.35h-.744l84.632-355.583ZM481.585-75.232h.748L397.701 280.35h-.748l84.632-355.583ZM479.046-75.232h.748L395.162 280.35h-.744l84.628-355.583ZM476.513-75.232h.744L392.625 280.35h-.744l84.632-355.583ZM473.976-75.232h.744L390.092 280.35h-.748l84.632-355.583ZM471.438-75.232h.749L387.555 280.35h-.748l84.631-355.583ZM468.905-75.232h.744L385.018 280.35h-.745l84.632-355.583ZM466.368-75.232h.744L382.485 280.35h-.749l84.632-355.583ZM463.829-75.232h.748L379.945 280.35h-.748l84.632-355.583Z" fill="#BDBDBD"/><path opacity=".6" fill-rule="evenodd" clip-rule="evenodd" d="M-14.807 413.903h-.673l140.501-590.63h.674l-140.502 590.63Zm2.29 0h-.673l140.501-590.63h.674l-140.502 590.63Zm2.29 0h-.673L129.6-176.727h.673l-140.501 590.63Zm2.29 0h-.673l140.501-590.63h.673l-140.5 590.63Zm2.29 0h-.674l140.502-590.63h.673l-140.5 590.63Zm2.29 0h-.673l140.501-590.63h.673l-140.5 590.63Zm2.29 0h-.673l140.501-590.63h.674L-1.067 413.903Zm2.29 0H.55l140.501-590.63h.674L1.223 413.903Zm2.29 0H2.84l140.501-590.63h.674L3.513 413.903Zm2.29 0H5.13l140.501-590.63h.673l-140.5 590.63Zm2.29 0H7.42l140.501-590.63h.673l-140.5 590.63Zm2.29 0H9.71l140.501-590.63h.674L10.383 413.903Zm2.29 0H12L152.5-176.727h.674L12.673 413.903Zm2.29 0h-.673l140.501-590.63h.674L14.964 413.903Zm2.29 0h-.673l140.501-590.63h.674L17.253 413.903Zm2.29 0h-.673l140.501-590.63h.674L19.543 413.903Zm2.29 0h-.673l140.501-590.63h.673l-140.5 590.63Zm2.29 0h-.673l140.501-590.63h.674L24.123 413.903Zm2.29 0h-.673l140.501-590.63h.674L26.413 413.903Zm2.29 0h-.673l140.501-590.63h.674L28.703 413.903Zm2.29 0h-.673l140.501-590.63h.674L30.994 413.903Zm2.29 0h-.673l140.501-590.63h.674L33.283 413.903Zm2.29 0H34.9l140.501-590.63h.674L35.573 413.903Zm2.29 0h-.673l140.501-590.63h.674L37.863 413.903Zm2.29 0h-.673l140.501-590.63h.674L40.154 413.903Zm2.29 0h-.673l140.501-590.63h.674L42.444 413.903Zm2.29 0h-.673l140.501-590.63h.674L44.734 413.903Zm2.29 0h-.673l140.501-590.63h.674L47.024 413.903Zm2.29 0h-.673l140.501-590.63h.674L49.313 413.903Zm2.29 0h-.673l140.501-590.63h.674L51.603 413.903Zm2.29 0h-.673l140.501-590.63h.674L53.893 413.903Zm2.29 0h-.673l140.501-590.63h.674L56.184 413.903Zm2.29 0H57.8l140.501-590.63h.674L58.474 413.903Zm2.29 0h-.673l140.502-590.63h.673L60.764 413.903Zm2.29 0h-.673l140.501-590.63h.674L63.054 413.903Zm2.29 0h-.673l140.501-590.63h.674L65.344 413.903Zm2.29 0h-.673l140.501-590.63h.674L67.634 413.903Zm2.29 0h-.673l140.501-590.63h.674L69.924 413.903Zm2.29 0h-.673l140.502-590.63h.673L72.214 413.903Zm2.29 0h-.673l140.502-590.63h.673L74.504 413.903Zm2.29 0h-.673l140.502-590.63h.673L76.794 413.903Zm2.29 0h-.673l140.501-590.63h.674L79.084 413.903Zm2.291 0H80.7l140.501-590.63h.674L81.374 413.903Z" fill="#BEBEBE"/><g opacity=".6" fill="#BEBEBE"><path d="M320.096-398.167h-1.326L18.055 865.964h1.325L320.096-398.167ZM324.601-398.167h-1.322L22.56 865.964h1.326L324.6-398.167ZM329.11-398.167h-1.326L27.067 865.964h1.326L329.11-398.167ZM333.615-398.167h-1.326L31.573 865.964H32.9L333.615-398.167ZM338.121-398.167h-1.326L36.08 865.964h1.325L338.121-398.167ZM342.629-398.167h-1.326L40.586 865.964h1.325L342.63-398.167ZM347.134-398.167h-1.326L45.092 865.964h1.325L347.134-398.167Z"/></g><g opacity=".6" fill="#BEBEBE"><path d="M351.253-398.167h-1.326L49.211 865.964h1.325L351.253-398.167ZM355.758-398.167h-1.326L53.717 865.964h1.325L355.758-398.167ZM360.262-398.167h-1.322L58.223 865.964h1.325L360.262-398.167ZM364.771-398.167h-1.326L62.729 865.964h1.325L364.77-398.167ZM369.277-398.167h-1.326L67.235 865.964h1.326L369.277-398.167ZM373.781-398.167h-1.322L71.741 865.964h1.326L373.78-398.167ZM378.29-398.167h-1.326L76.247 865.964h1.325L378.29-398.167Z"/></g><path d="M23.22-6.387H-4.848l-152.825 642.435h28.07L23.221-6.387Z" fill="#E0E0E0"/><path d="M20.428-6.387h2.793l-152.825 642.435h-2.792L20.428-6.387Z" fill="#E0E0E0"/><path d="M.404-6.387h-.673l-152.825 642.435h.674L.404-6.387ZM2.694-6.387h-.673l-152.825 642.435h.674L2.694-6.387ZM4.985-6.387h-.673l-152.826 642.435h.674L4.985-6.387ZM7.274-6.387h-.673l-152.826 642.435h.674L7.274-6.387ZM9.564-6.387H8.89l-152.825 642.435h.674L9.564-6.387Z" fill="#F2F2F2"/><path d="M834.208 0H593.499L440.676 642.436h240.705L834.208 0ZM586.77 0h-13.658L420.289 642.436h13.657L586.77 0Z" fill="#D9D9D9"/></g></g></svg>
